svgs/sharp-solid/calendar-circle-exclamation.svg

<svg xmlns="http://www.w3.org/2000/svg" viewBox="0 0 576 512"><!--! Font Awesome Pro 6.4.2 by @fontawesome - https://fontawesome.com License - https://fontawesome.com/license (Commercial License) Copyright 2023 Fonticons, Inc. --><path d="M160 0H96V64H0v96H448V64H352V0H288V64H160V0zm96 368c0-91.8 70.3-167.2 160-175.3V192H0V512H330.8C285.6 480.1 256 427.5 256 368zM432 512a144 144 0 1 0 0-288 144 144 0 1 0 0 288zm16-64H416V416h32v32zm0-176v16 80 16H416V368 288 272h32z"/></svg>

<svg xmlns="http://www.w3.org/2000/svg" viewBox="0 0 576 512"><!--! Font Awesome Pro 6.6.0 by @fontawesome - https://fontawesome.com License - https://fontawesome.com/license (Commercial License) Copyright 2024 Fonticons, Inc. --><path d="M160 0L96 0l0 64L0 64l0 96 448 0 0-96-96 0 0-64L288 0l0 64L160 64l0-64zm96 368c0-91.8 70.3-167.2 160-175.3l0-.7L0 192 0 512l330.8 0C285.6 480.1 256 427.5 256 368zM432 512a144 144 0 1 0 0-288 144 144 0 1 0 0 288zm16-64l-32 0 0-32 32 0 0 32zm0-176l0 16 0 80 0 16-32 0 0-16 0-80 0-16 32 0z"/></svg>
